images/header/chevron-down.svg

<svg width="16" height="16" viewBox="0 0 16 16" fill="none" xmlns="http://www.w3.org/2000/svg">
<path d="M4.32031 6.46621C4.32031 6.59549 4.36766 6.70127 4.45447 6.79138L7.45335 9.83937C7.56383 9.94515 7.67826 10 7.82031 10C7.95842 10 8.08074 9.94907 8.18333 9.83937L11.1862 6.79138C11.273 6.70127 11.3203 6.59549 11.3203 6.46621C11.3203 6.20372 11.1151 6 10.8547 6C10.7284 6 10.6061 6.05485 10.5154 6.14104L7.81637 8.88737L5.12527 6.14104C5.03057 6.05093 4.91614 6 4.78593 6C4.5255 6 4.32031 6.20372 4.32031 6.46621Z" fill="#1D1D1F"/>
</svg>

<svg xmlns="http://www.w3.org/2000/svg" width="16" height="16" fill="none" viewBox="0 0 16 16"><path fill="#1d1d1f" d="M4.32 6.466c0 .13.048.235.134.325l3 3.048c.11.106.224.161.366.161a.48.48 0 0 0 .363-.16l3.003-3.049a.45.45 0 0 0 .134-.325.46.46 0 0 0-.465-.466.5.5 0 0 0-.34.141L7.816 8.887l-2.69-2.746A.48.48 0 0 0 4.785 6a.46.46 0 0 0-.466.466"/></svg>
